X: 1
T: The Reel Of Mullinavat
R: reel
M: 4/4
L: 1/8
K: Edor
f|gfed B3A|~G3B EDB,D|GE~E2 G2Bd|eBBA Bdef|
g2fg edBA|~G3B EDB,D|GE~E2 G3A|Beed e3f||
gBfB edBA|GABG EDB,D|GE~E2 G2Bd|eBBA Bdef|
g2fg edBA|~G3B EDB,D|GE~E2 G3A|Beed e3f|
|:gB~B2 gabg|afde faaf|gB~B2 gabg|afdf e3f|
g2gf gbag|fdd2 fa~a2|b2af gfed|Bgfg e3f:|


Tune 1339	Setting 20711

